dist/assets/img/icons/sprite.svg

<svg xmlns="http://www.w3.org/2000/svg">
  <symbol id="search" viewBox="0 0 50 50">

    <svg fill="gray" width="45px" height="45px" viewBox="0 0 1920 1920" xmlns="http://www.w3.org/2000/svg">

    <g id="SVGRepo_bgCarrier" stroke-width="0"/>

    <g id="SVGRepo_tracerCarrier" stroke-linecap="round" stroke-linejoin="round"/>

    <g id="SVGRepo_iconCarrier"> <path d="M790.588 1468.235c-373.722 0-677.647-303.924-677.647-677.647 0-373.722 303.925-677.647 677.647-677.647 373.723 0 677.647 303.925 677.647 677.647 0 373.723-303.924 677.647-677.647 677.647Zm596.781-160.715c120.396-138.692 193.807-319.285 193.807-516.932C1581.176 354.748 1226.428 0 790.588 0S0 354.748 0 790.588s354.748 790.588 790.588 790.588c197.647 0 378.24-73.411 516.932-193.807l516.028 516.142 79.963-79.963-516.142-516.028Z" fill-rule="evenodd"/> </g>

    </svg>
  </symbol>

  <symbol id="like" viewBox="0 0 10 10">
    
    <svg width="20px" height="20px" viewBox="0 0 55 55" xmlns="http://www.w3.org/2000/svg" >

    <g id="SVGRepo_bgCarrier" stroke-width="0"/>

    <g id="SVGRepo_tracerCarrier" stroke-linecap="round" stroke-linejoin="round"/>

    <g id="SVGRepo_iconCarrier"> <path d="M7 2C3.31333 2 1 5.21475 1 8.5C1 11.8412 2.67415 14.6994 4.77151 16.9297C6.8721 19.1634 9.47698 20.8565 11.5528 21.8944C11.8343 22.0352 12.1657 22.0352 12.4472 21.8944C14.523 20.8565 17.1279 19.1634 19.2285 16.9297C21.3259 14.6994 23 11.8412 23 8.5C23 5.22013 20.7289 2 17 2C15.275 2 14.0531 2.47979 13.1186 3.20977C12.6785 3.55357 12.311 3.95011 11.9974 4.33639C11.6802 3.94929 11.3091 3.55266 10.8649 3.2079C9.92877 2.48125 8.70883 2 7 2Z"/> </g>

    </svg>
  </symbol>

  <symbol id="cart-icon" viewBox="0 0 24 24">
    
    <svg width="24px" height="24px" viewBox="0 0 24 24"  xmlns="http://www.w3.org/2000/svg">

    <g id="SVGRepo_bgCarrier" stroke-width="0"/>

    <g id="SVGRepo_tracerCarrier" stroke-linecap="round" stroke-linejoin="round"/>

    <g id="SVGRepo_iconCarrier"> <path d="M4.20853 17.8104L3.46191 17.7393L4.20853 17.8104ZM19.7915 17.8104L20.5381 17.7393L19.7915 17.8104ZM19.0296 9.81038L18.2829 9.88149L19.0296 9.81038ZM4.97043 9.81038L5.71705 9.88149L4.97043 9.81038ZM7.24999 11C7.24999 11.4142 7.58578 11.75 7.99999 11.75C8.41421 11.75 8.74999 11.4142 8.74999 11H7.24999ZM15.25 11C15.25 11.4142 15.5858 11.75 16 11.75C16.4142 11.75 16.75 11.4142 16.75 11H15.25ZM6.96142 8.75H17.0386V7.25H6.96142V8.75ZM18.2829 9.88149L19.0448 17.8815L20.5381 17.7393L19.7762 9.73928L18.2829 9.88149ZM17.8005 19.25H6.19952V20.75H17.8005V19.25ZM4.95515 17.8815L5.71705 9.88149L4.22381 9.73928L3.46191 17.7393L4.95515 17.8815ZM6.19952 19.25C5.46234 19.25 4.88526 18.6153 4.95515 17.8815L3.46191 17.7393C3.30815 19.3538 4.57773 20.75 6.19952 20.75V19.25ZM19.0448 17.8815C19.1147 18.6153 18.5376 19.25 17.8005 19.25V20.75C19.4223 20.75 20.6918 19.3538 20.5381 17.7393L19.0448 17.8815ZM17.0386 8.75C17.683 8.75 18.2218 9.23994 18.2829 9.88149L19.7762 9.73928C19.6418 8.32788 18.4563 7.25 17.0386 7.25V8.75ZM6.96142 7.25C5.54364 7.25 4.35823 8.32788 4.22381 9.73928L5.71705 9.88149C5.77815 9.23994 6.31698 8.75 6.96142 8.75V7.25ZM8.74999 7C8.74999 5.20507 10.2051 3.75 12 3.75V2.25C9.37664 2.25 7.24999 4.37665 7.24999 7H8.74999ZM12 3.75C13.7949 3.75 15.25 5.20507 15.25 7H16.75C16.75 4.37665 14.6233 2.25 12 2.25V3.75ZM7.24999 7V11H8.74999V7H7.24999ZM15.25 7V11H16.75V7H15.25Z"/> </g>

    </svg>
  </symbol>

  <symbol id="close" viewBox="0 0 64 64">
    
    <svg width="64px" height="64px" viewBox="0 0 64 64" xmlns="http://www.w3.org/2000/svg" fill="none" stroke="#000000">

    <g id="SVGRepo_bgCarrier" stroke-width="0"/>

    <g id="SVGRepo_tracerCarrier" stroke-linecap="round" stroke-linejoin="round"/>

    <g id="SVGRepo_iconCarrier">

    <line x1="16" y1="16" x2="48" y2="48"/>

    <line x1="48" y1="16" x2="16" y2="48"/>

    </g>

    </svg>
  </symbol >


  <symbol id="garbage" viewBox="0 0 64 64">
    <svg version="1.1" id="Layer_1" xmlns="http://www.w3.org/2000/svg" xmlns:xlink="http://www.w3.org/1999/xlink" width="64px" height="64px" viewBox="0 0 64 64" enable-background="new 0 0 64 64" xml:space="preserve" fill="#000000"><g id="SVGRepo_bgCarrier" stroke-width="0"></g><g id="SVGRepo_tracerCarrier" stroke-linecap="round" stroke-linejoin="round"></g><g id="SVGRepo_iconCarrier"> <g> <polyline fill="none" stroke="red" stroke-width="2" stroke-miterlimit="10" points="25,8 25,1 39,1 39,8 "></polyline> <polyline fill="none" stroke="red" stroke-width="2" stroke-miterlimit="10" points="14,10 14,63 50,63 50,10 "></polyline> <line fill="none" stroke="red" stroke-width="2" stroke-miterlimit="10" x1="26" y1="20" x2="26" y2="54"></line> <line fill="none" stroke="red" stroke-width="2" stroke-miterlimit="10" x1="38" y1="20" x2="38" y2="54"></line> <line fill="none" stroke="red" stroke-width="2" stroke-miterlimit="10" x1="10" y1="9" x2="54" y2="9"></line> </g> </g></svg>
  </symbol>

  <symbol id="arrow-bottom" viewBox="0 0 64 64">
    
   <svg width="64px" height="64px" viewBox="0 0 64 64" xmlns="http://www.w3.org/2000/svg" fill="none" stroke="#0c0b0b"><g id="SVGRepo_bgCarrier" stroke-width="0"></g><g id="SVGRepo_tracerCarrier" stroke-linecap="round" stroke-linejoin="round"></g><g id="SVGRepo_iconCarrier"><polyline points="48 24 32 40 16 24"></polyline></g></svg>
  </symbol>


  <symbol id="star"  viewBox="0 0 25 20">
    
    <svg width="22px" height="22px" viewBox="0 0 1024 1024" class="icon" version="1.1" xmlns="http://www.w3.org/2000/svg" fill="#000000">

    <g id="SVGRepo_bgCarrier" stroke-width="0"/>

    <g id="SVGRepo_tracerCarrier" stroke-linecap="round" stroke-linejoin="round"/>

    <g id="SVGRepo_iconCarrier">

    <path d="M541.44 103.68l126.72 256 282.88 42.24-204.8 198.4L794.88 883.2 541.44 750.08 288 883.2l48.64-282.88-204.8-198.4 282.88-42.24z" fill="#fbff00"/>

    <path d="M794.88 896c-2.56 0-3.84 0-6.4-1.28L541.44 764.16 294.4 894.72c-3.84 2.56-8.96 1.28-14.08-1.28-3.84-2.56-6.4-7.68-5.12-12.8l47.36-275.2L122.88 410.88c-3.84-3.84-5.12-8.96-3.84-12.8s5.12-7.68 10.24-8.96l276.48-39.68 124.16-250.88c3.84-8.96 19.2-8.96 23.04 0l124.16 250.88 276.48 39.68c5.12 1.28 8.96 3.84 10.24 8.96 1.28 5.12 0 10.24-3.84 12.8L760.32 605.44l47.36 275.2c1.28 5.12-1.28 10.24-5.12 12.8-2.56 1.28-5.12 2.56-7.68 2.56zM541.44 737.28c2.56 0 3.84 0 6.4 1.28l230.4 121.6-43.52-256c-1.28-3.84 1.28-8.96 3.84-11.52l185.6-181.76-257.28-37.12c-3.84 0-7.68-3.84-10.24-6.4l-115.2-232.96-115.2 232.96c-1.28 3.84-5.12 6.4-10.24 6.4l-257.28 37.12L345.6 591.36c2.56 2.56 3.84 7.68 3.84 11.52l-43.52 256 230.4-121.6h5.12z" fill="#231C1C"/>

    </g>

    </svg>
  </symbol>
</svg>

<svg xmlns="http://www.w3.org/2000/svg"><symbol id="search" viewBox="0 0 50 50"><svg fill="gray" width="45" height="45" viewBox="0 0 1920 1920" xmlns="http://www.w3.org/2000/svg"><path d="M790.588 1468.235c-373.722 0-677.647-303.924-677.647-677.647 0-373.722 303.925-677.647 677.647-677.647 373.723 0 677.647 303.925 677.647 677.647 0 373.723-303.924 677.647-677.647 677.647zm596.781-160.715c120.396-138.692 193.807-319.285 193.807-516.932C1581.176 354.748 1226.428 0 790.588 0S0 354.748 0 790.588s354.748 790.588 790.588 790.588c197.647 0 378.24-73.411 516.932-193.807l516.028 516.142 79.963-79.963-516.142-516.028z" fill-rule="evenodd" id="SVGRepo_iconCarrier"/></svg></symbol><symbol id="like" viewBox="0 0 10 10"><svg width="20" height="20" viewBox="0 0 55 55" xmlns="http://www.w3.org/2000/svg"><path d="M7 2C3.313 2 1 5.215 1 8.5c0 3.341 1.674 6.2 3.772 8.43 2.1 2.233 4.705 3.927 6.78 4.964a1 1 0 00.895 0c2.076-1.037 4.68-2.73 6.782-4.964C21.326 14.7 23 11.84 23 8.5 23 5.22 20.729 2 17 2c-1.725 0-2.947.48-3.881 1.21a7.1 7.1 0 00-1.122 1.126 7.139 7.139 0 00-1.132-1.128C9.929 2.48 8.709 2 7 2z" id="SVGRepo_iconCarrier"/></svg></symbol><symbol id="cart-icon" viewBox="0 0 24 24"><svg width="24" height="24" xmlns="http://www.w3.org/2000/svg"><path d="M4.209 17.81l-.747-.07.747.07zm15.582 0l.747-.07-.747.07zm-.761-8l-.747.071.747-.07zm-14.06 0l.747.071-.747-.07zM7.25 11a.75.75 0 001.5 0h-1.5zm8 0a.75.75 0 001.5 0h-1.5zM6.961 8.75H17.04v-1.5H6.96v1.5zm11.322 1.131l.762 8 1.493-.142-.762-8-1.493.142zM17.8 19.25H6.2v1.5h11.6v-1.5zM4.955 17.881l.762-8-1.493-.142-.762 8 1.493.142zM6.2 19.25a1.25 1.25 0 01-1.245-1.369l-1.493-.142A2.75 2.75 0 006.2 20.75v-1.5zm12.845-1.369A1.25 1.25 0 0117.8 19.25v1.5a2.75 2.75 0 002.738-3.01l-1.493.142zM17.039 8.75c.644 0 1.183.49 1.244 1.131l1.493-.142A2.75 2.75 0 0017.04 7.25v1.5zM6.96 7.25a2.75 2.75 0 00-2.737 2.49l1.493.141A1.25 1.25 0 016.961 8.75v-1.5zM8.75 7A3.25 3.25 0 0112 3.75v-1.5A4.75 4.75 0 007.25 7h1.5zM12 3.75A3.25 3.25 0 0115.25 7h1.5A4.75 4.75 0 0012 2.25v1.5zM7.25 7v4h1.5V7h-1.5zm8 0v4h1.5V7h-1.5z" id="SVGRepo_iconCarrier"/></svg></symbol><symbol id="close" viewBox="0 0 64 64"><svg width="64" height="64" xmlns="http://www.w3.org/2000/svg" fill="none" stroke="#000"><path d="M16 16l32 32m0-32L16 48" id="SVGRepo_iconCarrier"/></svg></symbol><symbol id="garbage" viewBox="0 0 64 64"><svg version="1.1" id="Layer_1" xmlns="http://www.w3.org/2000/svg" xmlns:xlink="http://www.w3.org/1999/xlink" width="64" height="64" xml:space="preserve" fill="#000"><path d="M25 8V1h14v7m-25 2v53h36V10M26 20v34m12-34v34M10 9h44" fill="none" stroke="red" stroke-width="2" stroke-miterlimit="10" id="SVGRepo_iconCarrier"/></svg></symbol><symbol id="arrow-bottom" viewBox="0 0 64 64"><svg width="64" height="64" xmlns="http://www.w3.org/2000/svg" fill="none" stroke="#0c0b0b"><path d="M48 24L32 40 16 24" id="SVGRepo_iconCarrier"/></svg></symbol><symbol id="star" viewBox="0 0 25 20"><svg width="22" height="22" viewBox="0 0 1024 1024" class="icon" xmlns="http://www.w3.org/2000/svg"><g id="SVGRepo_iconCarrier"><path d="M541.44 103.68l126.72 256 282.88 42.24-204.8 198.4 48.64 282.88-253.44-133.12L288 883.2l48.64-282.88-204.8-198.4 282.88-42.24z" fill="#fbff00"/><path d="M794.88 896c-2.56 0-3.84 0-6.4-1.28L541.44 764.16 294.4 894.72c-3.84 2.56-8.96 1.28-14.08-1.28-3.84-2.56-6.4-7.68-5.12-12.8l47.36-275.2-199.68-194.56c-3.84-3.84-5.12-8.96-3.84-12.8s5.12-7.68 10.24-8.96l276.48-39.68L529.92 98.56c3.84-8.96 19.2-8.96 23.04 0l124.16 250.88 276.48 39.68c5.12 1.28 8.96 3.84 10.24 8.96 1.28 5.12 0 10.24-3.84 12.8L760.32 605.44l47.36 275.2c1.28 5.12-1.28 10.24-5.12 12.8-2.56 1.28-5.12 2.56-7.68 2.56zM541.44 737.28c2.56 0 3.84 0 6.4 1.28l230.4 121.6-43.52-256c-1.28-3.84 1.28-8.96 3.84-11.52l185.6-181.76-257.28-37.12c-3.84 0-7.68-3.84-10.24-6.4L541.44 134.4l-115.2 232.96c-1.28 3.84-5.12 6.4-10.24 6.4l-257.28 37.12L345.6 591.36c2.56 2.56 3.84 7.68 3.84 11.52l-43.52 256 230.4-121.6h5.12z" fill="#231C1C"/></g></svg></symbol></svg>
